Obsidian-SemiLight/actions/22s/labplot-1x-zoom.svg

<svg viewBox="0 0 22 22" xmlns="http://www.w3.org/2000/svg"><path d="m3 3v2h1v-1h1v-1zm5 0v1h2v-1zm4 0v1h2v-1zm5 0v1h1v1h1v-2zm-8 4v1h2.292969l-3.292969 3.292969.707031.707031 3.292969-3.292969v2.292969h1v-4h-1zm-6 1v2h1v-2zm0 5v6h6v-6zm1 1h4v4h-4z" fill="#4d4d4d"/><path d="m19 19h-1v-8c-.508487.438772-1.58039 1.423509-2.094174 1.845943l-.57085-.648193 2.665024-2.19775h1z" fill="#3daee9"/></svg>

<svg xmlns="http://www.w3.org/2000/svg" viewBox="0 0 22 22">
  <defs id="defs3051">
    <style type="text/css" id="current-color-scheme">
      .ColorScheme-Text {
        color:#4d4d4d;
      }
      .ColorScheme-Highlight {
        color:#3daee9;
      }
      </style>
  </defs>
 <path 
     style="fill:currentColor;fill-opacity:1;stroke:none" 
     d="M 3,3 3,5 4,5 4,4 5,4 5,3 3,3 Z m 5,0 0,1 2,0 0,-1 -2,0 z m 4,0 0,1 2,0 0,-1 -2,0 z m 5,0 0,1 1,0 0,1 1,0 0,-2 -2,0 z M 9,7 9,8 11.292969,8 8,11.292969 8.707031,12 12,8.707031 12,11 13,11 13,7 12,7 9,7 Z M 3,8 3,10 4,10 4,8 3,8 Z m 0,5 0,6 6,0 0,-6 -6,0 z m 1,1 4,0 0,4 -4,0 0,-4 z"
     class="ColorScheme-Text"
     />
 <path 
     style="fill:currentColor;fill-opacity:1;stroke:none" 
     d="m 19,19 -1,0 0,-8 c -0.508487,0.438772 -1.58039,1.423509 -2.094174,1.845943 L 15.334976,12.19775 18,10 l 1,0 z"
     class="ColorScheme-Highlight"
     />
</svg>
